assets/icons/traton/mileage_inactive.svg

<svg xmlns="http://www.w3.org/2000/svg" width="32" height="32" viewBox="0 0 32 32" fill="none">
<path d="M6.4707 10.7129C5.11299 12.4852 4.23629 14.645 4.04199 17H7V19H4.04395C4.26544 21.6803 5.36621 24.1098 7.05957 26H21.7578L23.7578 28H6.2041C3.61038 25.4589 2 21.9179 2 18C2 14.7053 3.13841 11.6765 5.04297 9.28516L6.4707 10.7129Z" fill="#001D21" />
<path d="M6.4707 10.7129C5.11299 12.4852 4.23629 14.645 4.04199 17H7V19H4.04395C4.26544 21.6803 5.36621 24.1098 7.05957 26H21.7578L23.7578 28H6.2041C3.61038 25.4589 2 21.9179 2 18C2 14.7053 3.13841 11.6765 5.04297 9.28516L6.4707 10.7129Z" fill="#001D21" />
<path d="M27.707 26.293L26.293 27.707L4.29297 5.70703L5.70703 4.29297L27.707 26.293Z" fill="#001D21" />
<path d="M27.707 26.293L26.293 27.707L4.29297 5.70703L5.70703 4.29297L27.707 26.293Z" fill="#001D21" />
<path d="M16 4C23.732 4 30 10.268 30 18C30 20.2561 29.4639 22.3862 28.5156 24.2734L27.0107 22.7686C27.5185 21.5974 27.8462 20.3298 27.9561 19H25V17H27.958C27.7466 14.4374 26.7283 12.1053 25.1602 10.2529L23.207 12.207L21.793 10.793L23.7461 8.83887C21.8939 7.27117 19.5621 6.25238 17 6.04102V9H15V6.04102C13.6696 6.15077 12.4018 6.47945 11.2305 6.98828L9.72461 5.48242C11.6122 4.53426 13.7437 4 16 4Z" fill="#001D21" />
<path d="M16 4C23.732 4 30 10.268 30 18C30 20.2561 29.4639 22.3862 28.5156 24.2734L27.0107 22.7686C27.5185 21.5974 27.8462 20.3298 27.9561 19H25V17H27.958C27.7466 14.4374 26.7283 12.1053 25.1602 10.2529L23.207 12.207L21.793 10.793L23.7461 8.83887C21.8939 7.27117 19.5621 6.25238 17 6.04102V9H15V6.04102C13.6696 6.15077 12.4018 6.47945 11.2305 6.98828L9.72461 5.48242C11.6122 4.53426 13.7437 4 16 4Z" fill="#001D21" />
<path d="M14.7578 19H11V21H16.7578L18.7578 23H9V17H12.7578L14.7578 19Z" fill="#001D21" />
<path d="M14.7578 19H11V21H16.7578L18.7578 23H9V17H12.7578L14.7578 19Z" fill="#001D21" />
<path d="M23 18.7578L21.2422 17H23V18.7578Z" fill="#001D21" />
<path d="M23 18.7578L21.2422 17H23V18.7578Z" fill="#001D21" />
</svg>

<svg xmlns="http://www.w3.org/2000/svg" fill="none" viewBox="0 0 32 32"><path fill="#001d21" d="M6.5 10.7A12 12 0 0 0 4 17h3v2H4a12 12 0 0 0 3 7h14.8l2 2H6.2A14 14 0 0 1 5 9.3z"/><path fill="#001d21" d="M6.5 10.7A12 12 0 0 0 4 17h3v2H4a12 12 0 0 0 3 7h14.8l2 2H6.2A14 14 0 0 1 5 9.3zM27.7 26.3l-1.4 1.4-22-22 1.4-1.4z"/><path fill="#001d21" d="m27.7 26.3-1.4 1.4-22-22 1.4-1.4zM16 4a14 14 0 0 1 12.5 20.3L27 22.8a12 12 0 0 0 1-3.8h-3v-2h3a12 12 0 0 0-2.8-6.7l-2 2-1.4-1.5 2-2A12 12 0 0 0 17 6v3h-2V6q-2 .3-3.8 1L9.7 5.5Q12.7 4 16 4"/><path fill="#001d21" d="M16 4a14 14 0 0 1 12.5 20.3L27 22.8a12 12 0 0 0 1-3.8h-3v-2h3a12 12 0 0 0-2.8-6.7l-2 2-1.4-1.5 2-2A12 12 0 0 0 17 6v3h-2V6q-2 .3-3.8 1L9.7 5.5Q12.7 4 16 4M14.8 19H11v2h5.8l2 2H9v-6h3.8z"/><path fill="#001d21" d="M14.8 19H11v2h5.8l2 2H9v-6h3.8zM23 18.8 21.2 17H23z"/><path fill="#001d21" d="M23 18.8 21.2 17H23z"/></svg>
